src/ui/webui/resources/images/vr_reload.svg

<?xml version="1.0" encoding="UTF-8" standalone="no"?>
<svg width="90px" height="90px" viewBox="0 0 90 90" version="1.1" xmlns="http://www.w3.org/2000/svg" xmlns:xlink="http://www.w3.org/1999/xlink">
    <title>reload</title>
    <defs>
        <filter x="-50%" y="-50%" width="200%" height="200%" filterUnits="objectBoundingBox" id="filter-1">
            <feOffset dx="0" dy="2" in="SourceAlpha" result="shadowOffsetOuter1"></feOffset>
            <feGaussianBlur stdDeviation="15" in="shadowOffsetOuter1" result="shadowBlurOuter1"></feGaussianBlur>
            <feColorMatrix values="0 0 0 0 0   0 0 0 0 0   0 0 0 0 0  0 0 0 0.29 0" type="matrix" in="shadowBlurOuter1" result="shadowMatrixOuter1"></feColorMatrix>
            <feMerge>
                <feMergeNode in="shadowMatrixOuter1"></feMergeNode>
                <feMergeNode in="SourceGraphic"></feMergeNode>
            </feMerge>
        </filter>
    </defs>
    <g id="Page-1" stroke="none" stroke-width="1" fill="none" fill-rule="evenodd">
        <g id="02_overflow-menu" transform="translate(-1536.000000, -906.000000)" fill="#5A5A5A">
            <g id="overflow" filter="url(#filter-1)" transform="translate(1418.000000, 603.000000)">
                <path d="M174.368309,334.631691 L179,330 L179,344 L165,344 L171.534496,337.465504 C169.361142,335.323093 166.373342,334 163.071316,334 C156.413774,334 151.017829,339.372 151.017829,346 C151.017829,352.628 156.413774,358 163.071316,358 C168.32061,358 172.487099,354.75 174.013874,350.218 L174.234533,350.194419 C174.606882,349.395503 175.341308,349 176.006604,349 C176.8934,349 178,349.632779 178,351.00095 C178,351.295844 177.936326,351.575824 177.822014,351.82782 L177.913177,351.822 C175.528596,357.682 169.813234,362 163.071316,362 C154.195932,362 147,354.836 147,346 C147,337.164 154.195932,330 163.071316,330 C167.479103,330 171.468518,331.768738 174.368309,334.631691 Z" id="reload"></path>
            </g>
        </g>
    </g>
</svg>

<svg width="90" height="90" xmlns="http://www.w3.org/2000/svg"><defs><filter x="-50%" y="-50%" width="200%" height="200%" filterUnits="objectBoundingBox" id="a"><feOffset dy="2" in="SourceAlpha" result="shadowOffsetOuter1"/><feGaussianBlur stdDeviation="15" in="shadowOffsetOuter1" result="shadowBlurOuter1"/><feColorMatrix values="0 0 0 0 0 0 0 0 0 0 0 0 0 0 0 0 0 0 0.29 0" in="shadowBlurOuter1" result="shadowMatrixOuter1"/><feMerge><feMergeNode in="shadowMatrixOuter1"/><feMergeNode in="SourceGraphic"/></feMerge></filter></defs><g filter="url(#a)" transform="translate(-118 -303)" fill="#5A5A5A" fill-rule="evenodd"><path d="M174.368 334.632L179 330v14h-14l6.534-6.534a12.014 12.014 0 0 0-8.463-3.466c-6.657 0-12.053 5.372-12.053 12s5.396 12 12.053 12c5.25 0 9.416-3.25 10.943-7.782l.22-.024c.373-.798 1.107-1.194 1.773-1.194.886 0 1.993.633 1.993 2 0 .296-.064.576-.178.828l.091-.006c-2.384 5.86-8.1 10.178-14.842 10.178-8.875 0-16.071-7.164-16.071-16s7.196-16 16.071-16c4.408 0 8.398 1.769 11.297 4.632z"/></g></svg>
